X:1
T:Lord, Is It I?
T:Lord, Is It I?
T:Charles Hutchinson Gabriel
T:Marian Wendell Hubbard, 1904
T:Public Domain Courtesy of the Cyber Hymnal™
T:Public Domain Courtesy of the Cyber Hymnal™
C:Charles Hutchinson Gabriel
Z:Public Domain
Z:Courtesy of the Cyber Hymnal™
%%score ( 1 2 ) ( 3 4 )
L:1/8
Q:1/4=140
M:6/4
K:Eb
V:1 treble 
V:2 treble 
V:3 bass 
V:4 bass 
V:1
 [EG]2 [EG]2 [EG]2 [B,F]2 [B,E]2 [B,F]2 | [EG]4 [EG]2 [EG]6 | [DA]2 [DA]2 [DA]2 [DG]2 [DF]2 [DG]2 | %3
w: 1.~Some- one has turned from the|Lord a- way;|Some- one has gone from the|
w: 2.~Some- one is griev- ing the|Sav- ior’s love,|Wound- ing the heart of the|
w: 3.~Some- one is out where the|break- ers roll;|Some- one is near to the|
w: 4.~Some- one will en- ter e-|ter- nal rest;|Some- one will lean on the|
 [DA]4 [DA]2 [DA]6 | [EG]2 [EG]2 [EG]2 [B,F]2 [B,E]2 [EG]2 | [EA]4 [EB]2 [Ec]6 | %6
w: fold a- stray;|Some- one is tread- ing the|down- ward way—|
w: Ho- ly Dove,|Strange- ly for- get- ting his|God a- bove—|
w: treach- erous shoal;|Some- one will lose His im-|mor- tal soul—|
w: Sav- ior’s breast;|Some- one will dwell in the|man- sions blest—|
 [Ec]2 [EF]2 [EF]2 [Fd]6 | [Ge]2 [Fd]2 [Ec]2 [DB]6 || %8
w: Lord is it I?|Lord, is it I?|
w: Lord is it I?|Lord, is it I?|
w: Lord is it I?|Lord, is it I?|
w: Lord is it I?|Lord, is it I?|
"^Refrain" [Ge]2 [Gd]2 [Gc]2 [GB]2 [Gc]2 [^CG]2 | [DAB]2 [FB]2 [EB]2 B6 | %10
w: ||
w: ||
w: Lord is it I? O the|thought, like a dart,|
w: ||
 [Ge]2 [Gd]2 [Gc]2 [GB]2 [Gc]2 [^CG]2 | [DAB]2 [FB]2 [EB]2 B6 | [GB]2 [Gc]2 [GB]2 [_DG]2 [DF]2 E2 | %13
w: |||
w: |||
w: Pierc- es the in- ner- most|depths of the heart!|If there is one who in|
w: |||
 [EA]2 [EA]2 [EB]2 [Ec]6 | [Ee]2 [Ed]2 [Ec]2 [EB]6 |"^riten." [DB]2 [DF]2 [DG]2 [B,E]6 |] %16
w: |||
w: |||
w: Thee hath no part,|Lord is it I?|Lord, is it I?|
w: |||
V:2
 x12 | x12 | x12 | x12 | x12 | x12 | x12 | x12 || x12 | x6 (D2 E2 F2) | x12 | x6 (D2 E2 F2) | %12
 x10 E2 | x12 | x12 | x12 |] %16
V:3
 [E,B,]2 [E,B,]2 [E,B,]2 [E,A,]2 [E,G,]2 [E,A,]2 | [E,B,]4 [E,B,]2 [E,B,]6 | %2
 [B,,B,]2 [B,,F,B,]2 [B,,F,B,]2 [B,,B,]2 [B,,B,]2 [B,,B,]2 | [B,,F,B,]4 [B,,B,]2 [B,,B,]6 | %4
 [E,B,]2 [E,B,]2 [E,B,]2 [E,A,]2 [E,G,]2 [_D,B,]2 | [C,A,]4 [C,G,]2 [A,,A,]6 | %6
 [=A,,F,]2 [A,,C]2 [A,,C]2 [B,,B,]6 | [F,=A,]2 [F,A,]2 [F,A,]2 [B,,B,]6 || %8
 [E,B,]2 [E,B,]2 [E,B,]2 [E,E]2 [E,E]2 [=E,B,]2 | [F,B,]2 [D,B,]2 [C,B,]2 B,6 | %10
 [E,B,]2 [E,B,]2 [E,B,]2 [E,E]2 [E,E]2 [=E,B,]2 | [F,B,]2 [D,B,]2 [C,B,]2 B,6 | %12
 [E,_D]2 [E,D]2 [E,D]2 [E,B,]2 [E,A,]2 [_D,G,]2 | [C,A,]2 [C,A,]2 [B,,G,]2 [A,,A,]6 | %14
 [=A,,^F,]2 [A,,F,]2 [A,,F,]2 [B,,G,]6 | [B,,F,]2 [B,,A,]2 [B,,B,]2 [E,G,]6 |] %16
V:4
 x12 | x12 | x12 | x12 | x12 | x12 | x12 | x12 || x12 | x6 (B,,2 C,2 D,2) | x12 | %11
 x6 (B,,2 C,2 D,2) | x12 | x12 | x12 | x12 |] %16

